images/logo.svg

<svg width="145" height="20" viewBox="0 0 145 20" fill="none" xmlns="http://www.w3.org/2000/svg">
<path d="M8.294 0.592H11.596L13.676 6.702L15.756 0.592H19.084L15.938 8.99L18.278 14.892L23.504 0.539999H27.404L19.89 19H16.874L13.676 11.252L10.478 19H7.462L0 0.539999H3.848L9.1 14.892L11.388 8.99L8.294 0.592ZM34.3793 19.26C33.2873 19.26 32.2993 19.078 31.4153 18.714C30.5313 18.3327 29.7773 17.8213 29.1533 17.18C28.5293 16.5387 28.044 15.7933 27.6973 14.944C27.368 14.0947 27.2033 13.202 27.2033 12.266C27.2033 11.2953 27.368 10.3853 27.6973 9.536C28.0266 8.66933 28.5033 7.91533 29.1273 7.274C29.7513 6.61533 30.5053 6.09533 31.3893 5.714C32.2906 5.33267 33.296 5.142 34.4053 5.142C35.5146 5.142 36.5026 5.33267 37.3693 5.714C38.2533 6.09533 38.9986 6.60667 39.6053 7.248C40.2293 7.88933 40.6973 8.63467 41.0093 9.484C41.3386 10.3333 41.5033 11.2173 41.5033 12.136C41.5033 12.3613 41.4946 12.578 41.4773 12.786C41.4773 12.994 41.46 13.1673 41.4253 13.306H30.8953C30.9473 13.8433 31.0773 14.32 31.2853 14.736C31.4933 15.152 31.762 15.5073 32.0913 15.802C32.4206 16.0967 32.7933 16.322 33.2093 16.478C33.6253 16.634 34.0586 16.712 34.5093 16.712C35.2026 16.712 35.8526 16.5473 36.4593 16.218C37.0833 15.8713 37.508 15.4207 37.7333 14.866L40.7233 15.698C40.2206 16.738 39.4146 17.596 38.3053 18.272C37.2133 18.9307 35.9046 19.26 34.3793 19.26ZM37.9153 11.044C37.8286 10.0213 37.4473 9.20667 36.7713 8.6C36.1126 7.976 35.3066 7.664 34.3533 7.664C33.8853 7.664 33.4433 7.75067 33.0273 7.924C32.6286 8.08 32.2733 8.30533 31.9613 8.6C31.6493 8.89467 31.3893 9.25 31.1813 9.666C30.9906 10.082 30.878 10.5413 30.8433 11.044H37.9153ZM52.1538 19.26C51.1138 19.26 50.1864 19.026 49.3718 18.558C48.5571 18.09 47.9158 17.4487 47.4478 16.634V19H44.4058V0.0199995H47.8898V7.768C48.3751 6.936 49.0078 6.29467 49.7878 5.844C50.5851 5.376 51.5124 5.142 52.5698 5.142C53.4538 5.142 54.2598 5.33267 54.9878 5.714C55.7158 6.09533 56.3398 6.60667 56.8598 7.248C57.3971 7.88933 57.8044 8.64333 58.0818 9.51C58.3764 10.3767 58.5238 11.2867 58.5238 12.24C58.5238 13.228 58.3591 14.1467 58.0298 14.996C57.7178 15.8453 57.2758 16.5907 56.7038 17.232C56.1318 17.856 55.4558 18.35 54.6758 18.714C53.8958 19.078 53.0551 19.26 52.1538 19.26ZM51.1918 16.296C51.7464 16.296 52.2578 16.192 52.7258 15.984C53.1938 15.7587 53.5924 15.464 53.9218 15.1C54.2511 14.736 54.5024 14.3113 54.6758 13.826C54.8664 13.3407 54.9618 12.8207 54.9618 12.266C54.9618 11.7113 54.8751 11.1827 54.7018 10.68C54.5284 10.1773 54.2771 9.73533 53.9478 9.354C53.6358 8.97267 53.2631 8.66933 52.8298 8.444C52.3964 8.21867 51.9198 8.106 51.3998 8.106C50.6198 8.106 49.9178 8.366 49.2938 8.886C48.6871 9.38867 48.2191 10.0127 47.8898 10.758V14.008C48.0111 14.3547 48.1844 14.6667 48.4098 14.944C48.6524 15.2213 48.9211 15.464 49.2158 15.672C49.5104 15.8627 49.8311 16.0187 50.1778 16.14C50.5244 16.244 50.8624 16.296 51.1918 16.296Z" fill="#2196F3"/>
<path d="M73.0003 5.376C72.8789 5.25467 72.6536 5.09 72.3243 4.882C72.0123 4.674 71.6223 4.47467 71.1543 4.284C70.7036 4.076 70.2096 3.90267 69.6723 3.764C69.1349 3.62533 68.5889 3.556 68.0343 3.556C67.0463 3.556 66.3096 3.738 65.8243 4.102C65.3389 4.466 65.0963 4.97733 65.0963 5.636C65.0963 6.01733 65.1829 6.338 65.3563 6.598C65.5469 6.84067 65.8156 7.05733 66.1623 7.248C66.5089 7.43867 66.9423 7.612 67.4623 7.768C67.9996 7.924 68.6149 8.08867 69.3083 8.262C70.2096 8.50467 71.0243 8.76467 71.7523 9.042C72.4976 9.31933 73.1216 9.666 73.6243 10.082C74.1443 10.498 74.5429 11.0007 74.8203 11.59C75.0976 12.162 75.2363 12.8727 75.2363 13.722C75.2363 14.71 75.0456 15.5593 74.6643 16.27C74.3003 16.9633 73.7976 17.5267 73.1563 17.96C72.5323 18.3933 71.8043 18.714 70.9723 18.922C70.1576 19.1127 69.2996 19.208 68.3983 19.208C67.0116 19.208 65.6423 19 64.2903 18.584C62.9383 18.168 61.7249 17.5787 60.6503 16.816L62.2363 13.722C62.3923 13.878 62.6696 14.086 63.0683 14.346C63.4843 14.5887 63.9696 14.84 64.5243 15.1C65.0789 15.3427 65.6943 15.5507 66.3703 15.724C67.0463 15.8973 67.7396 15.984 68.4503 15.984C70.4263 15.984 71.4143 15.3513 71.4143 14.086C71.4143 13.6873 71.3016 13.3493 71.0763 13.072C70.8509 12.7947 70.5303 12.552 70.1143 12.344C69.6983 12.136 69.1956 11.9453 68.6063 11.772C68.0169 11.5987 67.3583 11.408 66.6303 11.2C65.7463 10.9573 64.9749 10.6973 64.3163 10.42C63.6749 10.1253 63.1376 9.78733 62.7043 9.406C62.2709 9.00733 61.9416 8.55667 61.7163 8.054C61.5083 7.534 61.4043 6.91867 61.4043 6.208C61.4043 5.272 61.5776 4.44 61.9243 3.712C62.2709 2.984 62.7476 2.37733 63.3543 1.892C63.9783 1.40667 64.6976 1.04267 65.5123 0.799999C66.3269 0.539999 67.2023 0.409999 68.1383 0.409999C69.4383 0.409999 70.6343 0.617999 71.7263 1.034C72.8183 1.43267 73.7716 1.90933 74.5863 2.464L73.0003 5.376ZM86.4013 18.298C85.9333 18.506 85.3613 18.714 84.6853 18.922C84.0093 19.13 83.2986 19.234 82.5533 19.234C82.0679 19.234 81.6086 19.1733 81.1753 19.052C80.7593 18.9307 80.3866 18.74 80.0573 18.48C79.7453 18.2027 79.4939 17.856 79.3033 17.44C79.1126 17.0067 79.0173 16.4867 79.0173 15.88V8.054H77.2233V5.376H79.0173V0.956H82.5013V5.376H85.3613V8.054H82.5013V14.71C82.5013 15.1953 82.6226 15.542 82.8653 15.75C83.1253 15.9407 83.4373 16.036 83.8013 16.036C84.1653 16.036 84.5206 15.9753 84.8673 15.854C85.2139 15.7327 85.4913 15.6287 85.6993 15.542L86.4013 18.298ZM93.1558 19.26C91.7518 19.26 90.6858 18.8093 89.9578 17.908C89.2298 17.0067 88.8658 15.672 88.8658 13.904V5.376H92.3498V13.15C92.3498 15.2473 93.1038 16.296 94.6118 16.296C95.2878 16.296 95.9378 16.0967 96.5618 15.698C97.2031 15.282 97.7231 14.658 98.1218 13.826V5.376H101.606V14.996C101.606 15.36 101.666 15.62 101.788 15.776C101.926 15.932 102.143 16.0187 102.438 16.036V19C102.091 19.0693 101.796 19.1127 101.554 19.13C101.328 19.1473 101.12 19.156 100.93 19.156C100.306 19.156 99.7944 19.0173 99.3958 18.74C99.0144 18.4453 98.7891 18.0467 98.7198 17.544L98.6418 16.452C98.0351 17.388 97.2551 18.09 96.3018 18.558C95.3484 19.026 94.2998 19.26 93.1558 19.26ZM111.49 19.26C110.554 19.26 109.687 19.078 108.89 18.714C108.093 18.35 107.408 17.8473 106.836 17.206C106.264 16.5647 105.813 15.8193 105.484 14.97C105.172 14.1033 105.016 13.176 105.016 12.188C105.016 11.2 105.163 10.2813 105.458 9.432C105.77 8.58267 106.195 7.83733 106.732 7.196C107.269 6.55467 107.911 6.052 108.656 5.688C109.401 5.324 110.216 5.142 111.1 5.142C112.105 5.142 113.007 5.38467 113.804 5.87C114.619 6.35533 115.251 6.988 115.702 7.768V0.0199995H119.186V14.996C119.186 15.36 119.247 15.62 119.368 15.776C119.489 15.932 119.697 16.0187 119.992 16.036V19C119.385 19.1213 118.891 19.182 118.51 19.182C117.886 19.182 117.375 19.026 116.976 18.714C116.577 18.402 116.352 17.9947 116.3 17.492L116.222 16.634C115.719 17.5007 115.035 18.1593 114.168 18.61C113.319 19.0433 112.426 19.26 111.49 19.26ZM112.4 16.296C112.729 16.296 113.067 16.244 113.414 16.14C113.761 16.0187 114.081 15.854 114.376 15.646C114.671 15.438 114.931 15.1953 115.156 14.918C115.399 14.6407 115.581 14.3373 115.702 14.008V10.758C115.563 10.3767 115.364 10.03 115.104 9.718C114.861 9.38867 114.575 9.11133 114.246 8.886C113.934 8.64333 113.596 8.45267 113.232 8.314C112.885 8.17533 112.539 8.106 112.192 8.106C111.672 8.106 111.187 8.21867 110.736 8.444C110.303 8.66933 109.93 8.98133 109.618 9.38C109.306 9.76133 109.063 10.2033 108.89 10.706C108.717 11.2087 108.63 11.7287 108.63 12.266C108.63 12.838 108.725 13.3667 108.916 13.852C109.107 14.3373 109.367 14.762 109.696 15.126C110.025 15.49 110.415 15.776 110.866 15.984C111.334 16.192 111.845 16.296 112.4 16.296ZM123.386 19V5.376H126.87V19H123.386ZM123.386 3.478V0.0199995H126.87V3.478H123.386ZM137.085 19.26C135.975 19.26 134.979 19.0693 134.095 18.688C133.211 18.3067 132.457 17.7953 131.833 17.154C131.226 16.4953 130.758 15.7413 130.429 14.892C130.099 14.0427 129.935 13.15 129.935 12.214C129.935 11.2607 130.099 10.3593 130.429 9.51C130.758 8.66067 131.226 7.91533 131.833 7.274C132.457 6.61533 133.211 6.09533 134.095 5.714C134.979 5.33267 135.975 5.142 137.085 5.142C138.194 5.142 139.182 5.33267 140.049 5.714C140.933 6.09533 141.678 6.61533 142.285 7.274C142.909 7.91533 143.385 8.66067 143.715 9.51C144.044 10.3593 144.209 11.2607 144.209 12.214C144.209 13.15 144.044 14.0427 143.715 14.892C143.385 15.7413 142.917 16.4953 142.311 17.154C141.704 17.7953 140.959 18.3067 140.075 18.688C139.191 19.0693 138.194 19.26 137.085 19.26ZM133.523 12.214C133.523 12.8207 133.609 13.3753 133.783 13.878C133.973 14.3633 134.225 14.788 134.537 15.152C134.866 15.516 135.247 15.802 135.681 16.01C136.114 16.2007 136.582 16.296 137.085 16.296C137.587 16.296 138.055 16.2007 138.489 16.01C138.922 15.802 139.295 15.516 139.607 15.152C139.936 14.788 140.187 14.3547 140.361 13.852C140.551 13.3493 140.647 12.7947 140.647 12.188C140.647 11.5987 140.551 11.0527 140.361 10.55C140.187 10.0473 139.936 9.614 139.607 9.25C139.295 8.886 138.922 8.60867 138.489 8.418C138.055 8.21 137.587 8.106 137.085 8.106C136.582 8.106 136.114 8.21 135.681 8.418C135.247 8.626 134.866 8.912 134.537 9.276C134.225 9.64 133.973 10.0733 133.783 10.576C133.609 11.0787 133.523 11.6247 133.523 12.214Z" fill="black"/>
</svg>

<svg width="145" height="20" fill="none" xmlns="http://www.w3.org/2000/svg"><path d="M8.294.592h3.302l2.08 6.11 2.08-6.11h3.328L15.938 8.99l2.34 5.902L23.504.54h3.9L19.89 19h-3.016l-3.198-7.748L10.478 19H7.462L0 .54h3.848L9.1 14.892l2.288-5.902L8.294.592zM34.379 19.26c-1.092 0-2.08-.182-2.964-.546a6.96 6.96 0 01-2.262-1.534 6.926 6.926 0 01-1.456-2.236 7.343 7.343 0 01-.494-2.678c0-.97.165-1.88.494-2.73a6.53 6.53 0 011.43-2.262 6.764 6.764 0 012.262-1.56c.902-.381 1.907-.572 3.016-.572 1.11 0 2.098.19 2.964.572.884.381 1.63.893 2.236 1.534a6.27 6.27 0 011.404 2.236c.33.85.494 1.733.494 2.652 0 .225-.008.442-.026.65 0 .208-.017.381-.052.52h-10.53c.052.537.182 1.014.39 1.43a3.51 3.51 0 001.924 1.742c.416.156.85.234 1.3.234.694 0 1.344-.165 1.95-.494.624-.347 1.049-.797 1.274-1.352l2.99.832c-.502 1.04-1.308 1.898-2.418 2.574-1.092.659-2.4.988-3.926.988zm3.536-8.216c-.086-1.023-.468-1.837-1.144-2.444-.658-.624-1.464-.936-2.418-.936-.468 0-.91.087-1.326.26a3.278 3.278 0 00-1.066.676c-.312.295-.572.65-.78 1.066-.19.416-.303.875-.338 1.378h7.072zm14.239 8.216c-1.04 0-1.968-.234-2.782-.702a5.125 5.125 0 01-1.924-1.924V19h-3.042V.02h3.484v7.748c.485-.832 1.118-1.473 1.898-1.924.797-.468 1.724-.702 2.782-.702.884 0 1.69.19 2.418.572a5.927 5.927 0 011.872 1.534 6.622 6.622 0 011.222 2.262c.294.867.442 1.777.442 2.73 0 .988-.165 1.907-.494 2.756a6.892 6.892 0 01-1.326 2.236 6.384 6.384 0 01-2.028 1.482 5.89 5.89 0 01-2.522.546zm-.962-2.964c.554 0 1.066-.104 1.534-.312.468-.225.866-.52 1.196-.884.33-.364.58-.789.754-1.274.19-.485.286-1.005.286-1.56 0-.555-.087-1.083-.26-1.586a4.003 4.003 0 00-.754-1.326 3.543 3.543 0 00-1.118-.91 3.053 3.053 0 00-1.43-.338c-.78 0-1.482.26-2.106.78a5.035 5.035 0 00-1.404 1.872v3.25c.121.347.294.659.52.936.242.277.511.52.806.728.294.19.615.347.962.468a3.52 3.52 0 001.014.156z" fill="#2196F3"/><path d="M73 5.376c-.121-.121-.346-.286-.676-.494a6.638 6.638 0 00-1.17-.598 8.75 8.75 0 00-1.482-.52 6.53 6.53 0 00-1.638-.208c-.988 0-1.724.182-2.21.546-.485.364-.728.875-.728 1.534 0 .381.087.702.26.962.19.243.46.46.806.65.347.19.78.364 1.3.52.538.156 1.153.32 1.846.494a25.56 25.56 0 012.444.78c.746.277 1.37.624 1.872 1.04.52.416.919.919 1.196 1.508.278.572.416 1.283.416 2.132 0 .988-.19 1.837-.572 2.548a4.571 4.571 0 01-1.508 1.69c-.624.433-1.352.754-2.184.962-.814.19-1.672.286-2.574.286-1.386 0-2.756-.208-4.108-.624a12.682 12.682 0 01-3.64-1.768l1.586-3.094c.156.156.434.364.832.624.416.243.902.494 1.456.754.555.243 1.17.45 1.846.624.676.173 1.37.26 2.08.26 1.976 0 2.964-.633 2.964-1.898 0-.399-.112-.737-.338-1.014-.225-.277-.546-.52-.962-.728a9.207 9.207 0 00-1.508-.572c-.59-.173-1.248-.364-1.976-.572a18.915 18.915 0 01-2.314-.78c-.641-.295-1.178-.633-1.612-1.014a4.117 4.117 0 01-.988-1.352c-.208-.52-.312-1.135-.312-1.846 0-.936.174-1.768.52-2.496a5.104 5.104 0 011.43-1.82A6.498 6.498 0 0165.512.8a8.59 8.59 0 012.626-.39c1.3 0 2.496.208 3.588.624 1.092.399 2.046.875 2.86 1.43L73 5.376zm13.401 12.922c-.468.208-1.04.416-1.716.624a7.21 7.21 0 01-2.132.312 5.09 5.09 0 01-1.378-.182 3.256 3.256 0 01-1.118-.572 3.093 3.093 0 01-.754-1.04c-.19-.433-.286-.953-.286-1.56V8.054h-1.794V5.376h1.794V.956h3.484v4.42h2.86v2.678h-2.86v6.656c0 .485.122.832.364 1.04.26.19.572.286.936.286.364 0 .72-.06 1.066-.182.347-.121.624-.225.832-.312l.702 2.756zm6.755.962c-1.404 0-2.47-.45-3.198-1.352-.728-.901-1.092-2.236-1.092-4.004V5.376h3.484v7.774c0 2.097.754 3.146 2.262 3.146.676 0 1.326-.2 1.95-.598.641-.416 1.161-1.04 1.56-1.872v-8.45h3.484v9.62c0 .364.06.624.182.78.138.156.355.243.65.26V19a7.3 7.3 0 01-1.508.156c-.624 0-1.136-.139-1.534-.416-.382-.295-.607-.693-.676-1.196l-.078-1.092c-.607.936-1.387 1.638-2.34 2.106-.954.468-2.002.702-3.146.702zm18.334 0a6.185 6.185 0 01-2.6-.546 6.135 6.135 0 01-2.054-1.508 7.27 7.27 0 01-1.352-2.236 8.152 8.152 0 01-.468-2.782c0-.988.147-1.907.442-2.756a7.45 7.45 0 011.274-2.236 5.812 5.812 0 011.924-1.508 5.493 5.493 0 012.444-.546c1.005 0 1.907.243 2.704.728a5.243 5.243 0 011.898 1.898V.02h3.484v14.976c0 .364.061.624.182.78.121.156.329.243.624.26V19c-.607.121-1.101.182-1.482.182-.624 0-1.135-.156-1.534-.468a1.716 1.716 0 01-.676-1.222l-.078-.858a5.007 5.007 0 01-2.054 1.976 5.815 5.815 0 01-2.678.65zm.91-2.964c.329 0 .667-.052 1.014-.156a3.883 3.883 0 001.742-1.222c.243-.277.425-.58.546-.91v-3.25a3.467 3.467 0 00-.598-1.04 3.564 3.564 0 00-.858-.832 3.912 3.912 0 00-1.014-.572 2.782 2.782 0 00-1.04-.208c-.52 0-1.005.113-1.456.338a3.404 3.404 0 00-1.118.936 4.264 4.264 0 00-.728 1.326 4.761 4.761 0 00-.26 1.56c0 .572.095 1.1.286 1.586.191.485.451.91.78 1.274s.719.65 1.17.858c.468.208.979.312 1.534.312zM123.386 19V5.376h3.484V19h-3.484zm0-15.522V.02h3.484v3.458h-3.484zm13.699 15.782c-1.11 0-2.106-.19-2.99-.572a6.96 6.96 0 01-2.262-1.534 7.08 7.08 0 01-1.404-2.262 7.328 7.328 0 01-.494-2.678 7.4 7.4 0 01.494-2.704 6.78 6.78 0 011.404-2.236 6.764 6.764 0 012.262-1.56c.884-.381 1.88-.572 2.99-.572 1.109 0 2.097.19 2.964.572a6.49 6.49 0 012.236 1.56 6.595 6.595 0 011.43 2.236c.329.85.494 1.75.494 2.704a7.35 7.35 0 01-.494 2.678 7.115 7.115 0 01-1.404 2.262c-.607.641-1.352 1.153-2.236 1.534-.884.381-1.881.572-2.99.572zm-3.562-7.046c0 .607.086 1.161.26 1.664.19.485.442.91.754 1.274.329.364.71.65 1.144.858.433.19.901.286 1.404.286.502 0 .97-.095 1.404-.286a3.39 3.39 0 001.118-.858c.329-.364.58-.797.754-1.3.19-.503.286-1.057.286-1.664 0-.59-.096-1.135-.286-1.638a3.733 3.733 0 00-.754-1.3 3.104 3.104 0 00-1.118-.832 3.206 3.206 0 00-1.404-.312 3.2 3.2 0 00-1.404.312 3.665 3.665 0 00-1.144.858 4.328 4.328 0 00-.754 1.3 4.976 4.976 0 00-.26 1.638z" fill="#000"/></svg>
